icons/expressjs-logo.svg

<svg xmlns="http://www.w3.org/2000/svg" width="256" height="256" fill="none" viewBox="0 0 256 256"><rect width="256" height="256" fill="#F4F2ED" rx="60"/><path fill="#0F0F0F" d="M228 182.937C225.089 184.04 221.875 184.037 218.965 182.931C216.056 181.824 213.652 179.69 212.209 176.932C203.146 163.365 193.138 150.41 183.519 137.177L179.348 131.617C167.894 146.963 156.44 161.697 145.987 176.988C144.625 179.624 142.352 181.675 139.59 182.759C136.828 183.844 133.766 183.887 130.975 182.882L173.955 125.223L133.977 73.1236C136.855 72.0845 140.003 72.0702 142.89 73.0832C145.777 74.0962 148.226 76.0744 149.824 78.6838C159.109 92.2506 169.396 105.206 179.626 118.94C189.913 105.317 200.088 92.3062 209.596 78.8506C210.965 76.2574 213.24 74.258 215.988 73.2328C218.735 72.2076 221.764 72.2281 224.497 73.2904L208.984 93.8631C202.034 103.037 195.195 112.267 187.967 121.219C187.384 121.741 186.918 122.379 186.599 123.093C186.28 123.807 186.115 124.58 186.115 125.362C186.115 126.143 186.28 126.916 186.599 127.63C186.918 128.344 187.384 128.982 187.967 129.504C201.256 147.13 214.433 164.811 228 182.937V182.937Z"/><path fill="#0F0F0F" d="M28 124.5C29.1676 118.94 29.8905 112.879 31.5029 107.208C41.122 73.0129 80.3214 58.7788 107.288 79.9632C123.079 92.3624 127.027 109.933 126.249 129.727H37.2855C35.8399 165.09 61.3611 186.441 93.9994 175.543C99.2938 173.649 104.033 170.467 107.79 166.283C111.547 162.099 114.202 157.045 115.517 151.578C117.241 146.018 120.021 145.073 125.303 146.685C124.433 153.454 122.04 159.938 118.303 165.649C114.567 171.36 109.584 176.149 103.73 179.657C94.0573 184.947 82.96 187.042 72.0247 185.644C61.0894 184.246 50.8763 179.426 42.8457 171.873C34.9011 162.94 30.0973 151.654 29.1676 139.735C29.1676 137.845 28.4448 135.954 28.0556 134.175C28.0185 130.876 28 127.651 28 124.5ZM37.3967 122.109H117.853C117.352 96.4769 101.172 78.2951 79.5986 78.1283C55.5785 77.7947 38.3976 95.5873 37.3411 121.998L37.3967 122.109Z"/></svg>

<svg xmlns="http://www.w3.org/2000/svg" width="256" height="256" viewBox="0 0 256 256"><g fill="none"><rect width="256" height="256" fill="#242938" rx="60"/><path fill="#fff" d="M228 182.937a12.732 12.732 0 0 1-15.791-6.005c-9.063-13.567-19.071-26.522-28.69-39.755l-4.171-5.56c-11.454 15.346-22.908 30.08-33.361 45.371a12.23 12.23 0 0 1-15.012 5.894l42.98-57.659l-39.978-52.1a13.289 13.289 0 0 1 15.847 5.56c9.285 13.568 19.572 26.523 29.802 40.257c10.287-13.623 20.462-26.634 29.97-40.09a11.952 11.952 0 0 1 14.901-5.56l-15.513 20.573c-6.95 9.174-13.789 18.404-21.017 27.356a5.558 5.558 0 0 0 0 8.285c13.289 17.626 26.466 35.307 40.033 53.433M28 124.5c1.168-5.56 1.89-11.621 3.503-17.292c9.619-34.195 48.818-48.43 75.785-27.245c15.791 12.4 19.739 29.97 18.961 49.764H37.286c-1.446 35.363 24.075 56.714 56.713 45.816a33.864 33.864 0 0 0 21.518-23.965c1.724-5.56 4.504-6.505 9.786-4.893a45.145 45.145 0 0 1-21.573 32.972a52.263 52.263 0 0 1-60.884-7.784a54.767 54.767 0 0 1-13.678-32.138c0-1.89-.723-3.781-1.112-5.56A860.69 860.69 0 0 1 28 124.5m9.397-2.391h80.456c-.501-25.632-16.681-43.814-38.254-43.98c-24.02-.334-41.201 17.458-42.258 43.869z"/></g></svg>
